X:1
T:Title
%%score ( 1 2 ) ( 3 4 )
L:1/8
Q:1/4=95
M:4/4
K:C
V:1 treble nm="Grand Piano, Soprano"
V:2 treble 
V:3 bass nm="Choir Pad, The Day Is Nigh"
V:4 bass 
V:1
 [CE]>[DF] [EG]>[EG] [_E^F]>[EA] [=EG]2 | [Ec]>[EB] [Fd]>[Fc] [FB]>[Gc] [FA]2 | %2
w: By~George~B.~C.~Thomas * * * * * *||
 [Ac]>[FA] [EG]>[EG] [_E^F]>[=EG] [Gc]2 | [Ge]2 [Gd]6 | [CE]>[DF] [EG]>[EG] [_E^F]>[EA] [=EG]2 | %5
w: |||
 [Ec]>[EB] [Fd]>[Fc] [FA]>[Fc] [EG]2 | [Ec]>[Fd] [Ge]>[Fd] [Ec]>[Ge] [Fd]2 | B-[FB] [Ec]6 | %8
w: |||
 z2 [EG]4- [EG]>[Ec] | [EB]>[FA] [FB]6 | [FB]>[Fc] [Fd]>[Fc] [FB]>[FA] G2 | [B,F]2 [CE]6 | %12
w: ||||
 [EG]>[Ec] [Ge]4- [Ge]>[Fd] | [Ec]>[DB] [Fd]6 | [Fc]>[FA] [EG]>[Ec] [Ge]>[Ec] [Fd]2 | %15
w: |||
 [Fd]2 [Ec]6- | [Ec]2 z2 z4 |] %17
w: ||
V:2
 x8 | x8 | x8 | x8 | x8 | x8 | x8 | .D2 z2 z4 | x8 | x8 | x8 | x8 | x8 | x8 | x8 | x8 | x8 |] %17
V:3
 [C,G,]>[C,G,] [C,C]>[C,C] [C,C]>[C,C] [C,C]2 | [C,G,]>[C,G,] [F,A,]>[F,A,] [F,G,]>[F,A,] [F,C]2 | %2
 [F,C]>[F,C] [C,C]>[C,C] [C,C]>[C,C] [E,C]2 | z2 B,6 | %4
 [E,G,]>[D,G,] [C,C]>[C,C] [C,C]>[C,C] [C,C]2 | [C,G,]>[C,G,] [F,A,]>[F,A,] [F,C]>[A,C] C2 | %6
 [C,G,]>[C,G,] [C,C]>[C,C] [C,C]>[C,C] [F,A,]2 | G,2 [C,G,]6 | %8
 z2 [C,G,]2 (3[C,C][C,C][C,C] [C,C]2 | [C,G,]2 [D,G,]2 (3[G,,G,][G,,G,][G,,G,] [G,,G,]2 | %10
 G,>[G,A,] [G,B,]>[G,A,] [G,D]>[G,C] [G,B,]2 | G,2 [C,G,]6 | z2 [C,C]2 (3[C,C][C,C][C,C] [C,C]2 | %13
 [C,G,]2 [F,A,]2 (3[F,A,][F,A,][F,A,] [F,A,]2 | [F,A,]>[F,C] [G,C]>[G,C] [G,C]>[G,C] [G,B,]2 | %15
 G,2 [C,G,]6- | [C,G,]2 z2 z4 |] %17
V:4
 x8 | x8 | x8 | [E,C]2 G,4 G,>F, | x8 | x8 | x8 | x8 | x8 | x8 | x8 | x8 | x8 | x8 | x8 | x8 | %16
 x8 |] %17

